X:3375
T:La boite à frisson (J. Blanchard)
O:england
C:Wood/Cutting: Lusignac
C:Gout d'hier
M:3/4
L:1/8
K:C
AB cA ec|B2 AB cA|ec BA Bc|f3 f fe|de fd fd|B2 AB cd|ed ce dc|
B3B cB|AB cA ec|B2 AB cA|ec BA Bc|f3 f fe|de fa fd|cB ce dc|
BA Bd Bc|1 A2 E3E:|2 A2EA Bc|:B3B AB|cB cd ec|Bc de fg|e2e2e2|fc Ac fc|
ec Gc ec|dA ^FA dA|B2 BA GA|BA Bc dB|cB cd ec|Bc de fg|
e2e2e2|1 fe fa fd|cB ce dc|BA Bd Bc|A2EA Bc:|2 fe fg ab|c'a ec BA|BA Bd Bc|A6||


